static/assets/template/assets/img/icons/essential/detailed/Cart_Add_2.svg

<svg height="132" viewBox="0 0 153 132" width="153" xmlns="http://www.w3.org/2000/svg"><g fill="none" fill-rule="evenodd" transform="translate(2 2)"><g stroke-linecap="round" stroke-linejoin="round" stroke-width="3" transform="translate(16 127)"><path d="m1.6.9h-1.1"/><path d="m95.3.9h-87.4"/><path d="m126.2.9h-25.9"/><path d="m132.6.9h-1.8"/></g><path d="m133 34c-1.7-2.4-4.4-3.7-7.3-3.7 0 0 0 0-.1 0h-79.6c-2.6 0-4.7 2.1-4.7 4.7s2.1 4.7 4.7 4.7h79.4l-9.6 31c-.7 2.2-2.7 3.6-4.9 3.6h-66l-19-62.7c-1.3-4.2-5.1-7.1-9.6-7.1h-11.5c-2.6 0-4.7 2.1-4.7 4.7s2.1 4.7 4.7 4.7h11.5c.3 0 .6.2.7.5l23 75.7c1.8 5.8 7.2 9.7 13.2 9.7h58.1c2.6 0 4.7-2.1 4.7-4.7s-2.1-4.7-4.7-4.7h-58.1c-2 0-3.8-1.3-4.4-3.2l-1.1-3.6h63.2c6.4 0 11.9-4.1 13.8-10.2l9.6-31.1c1-2.9.5-5.9-1.3-8.3z" fill-rule="nonzero"/><path d="m134.6 41.3c-.1.3-.1.6-.2.9l-9.6 31.1c-1.9 6.1-7.4 10.2-13.8 10.2h-63.1l3 7.3c.6 1.9 2.3 3.2 4.4 3.2h56.3c1.9 0 3.5 1.1 4.3 2.8-.7 1.6-2.4 2.8-4.3 2.8h-58.1c-6.1 0-11.4-3.9-13.3-9.7l-23-75.7c-.1-.3-.4-.5-.7-.5h-11.5c-1.9 0-3.5-1.1-4.3-2.8.7-1.6 2.4-2.8 4.3-2.8h11.5c4.4 0 8.3 2.9 9.6 7.1l19 59h66c2.3 0 4.3-1.5 4.9-3.6l9.6-27.2h-1.2l1.2-3.7h-79.4c-1.9 0-3.6-1.1-4.3-2.8.7-1.6 2.3-2.8 4.3-2.8h79.7c2.9 0 5.6 1.4 7.3 3.7.6 1.1 1.2 2.3 1.4 3.5z" fill-rule="nonzero"/><g stroke-linecap="round" stroke-linejoin="round" stroke-width="3"><path d="m119.5 39.6h6l-9.6 31c-.7 2.2-2.7 3.6-4.9 3.6h-66l-19-62.7c-1.3-4.2-5.1-7.1-9.6-7.1h-11.5c-2.6 0-4.7 2.1-4.7 4.7s2.1 4.7 4.7 4.7h11.5c.3 0 .6.2.7.5l23 75.7c1.8 5.8 7.2 9.7 13.2 9.7h58.1c2.6 0 4.7-2.1 4.7-4.7s-2.1-4.7-4.7-4.7h-58.1c-2 0-3.8-1.3-4.4-3.2l-1.1-3.6h63.2c6.4 0 11.9-4.1 13.8-10.2l9.6-31.1c.9-2.8.4-5.8-1.4-8.2-1.7-2.4-4.4-3.7-7.3-3.7 0 0 0 0-.1 0h-4.6"/><path d="m47.3 30.3h-1.2c-2.6 0-4.7 2.1-4.7 4.7s2.1 4.7 4.7 4.7h2.7"/><circle cx="55.4" cy="117.3" fill-rule="nonzero" r="10.3"/><circle cx="55.4" cy="117.3" fill-rule="nonzero" r="4.9"/><circle cx="104.8" cy="117.3" fill-rule="nonzero" r="10.3"/><circle cx="104.8" cy="117.3" fill-rule="nonzero" r="4.9"/></g><g transform="translate(53)"><path d="m47.3 54.8c-4.7 3.1-10.3 4.9-16.3 4.9-16.5 0-29.8-13.3-29.8-29.8s13.3-29.8 29.8-29.8 29.8 13.3 29.8 29.8c-.1 10.4-5.4 19.6-13.5 24.9" fill-rule="nonzero"/><g stroke-linecap="round" stroke-linejoin="round" stroke-width="3"><path d="m40.1 58.5c-.3.1-.5.1-.8.2-2.7.8-5.6 1.3-8.6 1.3-6.6 0-12.8-2.2-17.7-5.8"/><path d="m1.2 34.6c-.2-1.4-.3-2.9-.3-4.4 0-16.5 13.3-29.8 29.8-29.8s29.8 13.3 29.8 29.8c0 9.2-4.2 17.5-10.8 23"/><path d="m6.2 47.2c-.3-.5-.7-1-1-1.5"/></g><g fill-rule="nonzero" transform="translate(13 12)"><path d="m17.9 33.7c-2 0-4.2-1.5-4.2-4.2v-7.4h-7.4c-2.7 0-4.2-2.2-4.2-4.2 0-1.1.4-2.1 1-2.9.8-.9 1.9-1.4 3.1-1.4h7.4v-7.4c0-2.7 2.2-4.2 4.2-4.2s4.2 1.5 4.2 4.2v7.4h7.4c1.3 0 2.4.5 3.1 1.4.7.8 1 1.8 1 2.9 0 2-1.5 4.2-4.2 4.2h-7.4v7.4c.3 2.8-1.9 4.2-4 4.2z"/><path d="m17.9 3.5c1.4 0 2.7.9 2.7 2.7v8.9h8.9c3.6 0 3.6 5.4 0 5.4-1.9 0-5.3 0-8.9 0v8.9c0 1.8-1.4 2.7-2.7 2.7-1.4 0-2.7-.9-2.7-2.7 0-1.9 0-5.3 0-8.9-3.6 0-7 0-8.9 0-3.6 0-3.6-5.4 0-5.4h8.9c0-3.6 0-7 0-8.9 0-1.8 1.4-2.7 2.7-2.7zm0-3c-1.4 0-2.8.5-3.9 1.4-1.2 1.1-1.9 2.6-1.9 4.3v5.9h-5.9c-3.2 0-5.7 2.5-5.7 5.7 0 1.4.5 2.8 1.4 3.9 1.1 1.2 2.6 1.9 4.3 1.9h5.9v5.9c0 3.2 2.5 5.7 5.7 5.7 3.3 0 5.7-2.4 5.7-5.7v-5.9h5.9c3.2 0 5.7-2.5 5.7-5.7 0-3.3-2.4-5.7-5.7-5.7h-5.9v-5.9c.2-3.3-2.3-5.8-5.6-5.8z"/></g></g></g></svg>

<?xml version="1.0" encoding="UTF-8"?>
<svg width="153px" height="132px" viewBox="0 0 153 132" version="1.1" xmlns="http://www.w3.org/2000/svg" xmlns:xlink="http://www.w3.org/1999/xlink">
    <!-- Generator: Sketch 51.2 (57519) - http://www.bohemiancoding.com/sketch -->
    <title>Cart_Add_2</title>
    <desc>Created with Sketch.</desc>
    <defs></defs>
    <g id="Page-1" stroke="none" stroke-width="1" fill="none" fill-rule="evenodd">
        <g id="Cart_Add_2" transform="translate(2.000000, 2.000000)">
            <g id="Group" transform="translate(16.000000, 127.000000)" class="stroke-primary-300" stroke-linecap="round" stroke-linejoin="round" stroke-width="3">
                <path d="M1.6,0.9 L0.5,0.9" id="Shape"></path>
                <path d="M95.3,0.9 L7.9,0.9" id="Shape"></path>
                <path d="M126.2,0.9 L100.3,0.9" id="Shape"></path>
                <path d="M132.6,0.9 L130.8,0.9" id="Shape"></path>
            </g>
            <path d="M133,34 C131.3,31.6 128.6,30.3 125.7,30.3 C125.7,30.3 125.7,30.3 125.6,30.3 L46,30.3 C43.4,30.3 41.3,32.4 41.3,35 C41.3,37.6 43.4,39.7 46,39.7 L125.4,39.7 L115.8,70.7 C115.1,72.9 113.1,74.3 110.9,74.3 L44.9,74.3 L25.9,11.6 C24.6,7.4 20.8,4.5 16.3,4.5 L4.8,4.5 C2.2,4.5 0.1,6.6 0.1,9.2 C0.1,11.8 2.2,13.9 4.8,13.9 L16.3,13.9 C16.6,13.9 16.9,14.1 17,14.4 L40,90.1 C41.8,95.9 47.2,99.8 53.2,99.8 L111.3,99.8 C113.9,99.8 116,97.7 116,95.1 C116,92.5 113.9,90.4 111.3,90.4 L53.2,90.4 C51.2,90.4 49.4,89.1 48.8,87.2 L47.7,83.6 L110.9,83.6 C117.3,83.6 122.8,79.5 124.7,73.4 L134.3,42.3 C135.3,39.4 134.8,36.4 133,34 Z" id="Shape" class="fill-neutral" fill-rule="nonzero"></path>
            <path d="M134.6,41.3 C134.5,41.6 134.5,41.9 134.4,42.2 L124.8,73.3 C122.9,79.4 117.4,83.5 111,83.5 L47.9,83.5 L50.9,90.8 C51.5,92.7 53.2,94 55.3,94 L111.6,94 C113.5,94 115.1,95.1 115.9,96.8 C115.2,98.4 113.5,99.6 111.6,99.6 L53.5,99.6 C47.4,99.6 42.1,95.7 40.2,89.9 L17.2,14.2 C17.1,13.9 16.8,13.7 16.5,13.7 L5,13.7 C3.1,13.7 1.5,12.6 0.7,10.9 C1.4,9.3 3.1,8.1 5,8.1 L16.5,8.1 C20.9,8.1 24.8,11 26.1,15.2 L45.1,74.2 L111.1,74.2 C113.4,74.2 115.4,72.7 116,70.6 L125.6,43.4 L124.4,43.4 L125.6,39.7 L46.2,39.7 C44.3,39.7 42.6,38.6 41.9,36.9 C42.6,35.3 44.2,34.1 46.2,34.1 L125.9,34.1 C128.8,34.1 131.5,35.5 133.2,37.8 C133.8,38.9 134.4,40.1 134.6,41.3 Z" id="Shape" class="fill-primary-200" fill-rule="nonzero"></path>
            <path d="M119.5,39.6 L125.5,39.6 L115.9,70.6 C115.2,72.8 113.2,74.2 111,74.2 L45,74.2 L26,11.5 C24.7,7.3 20.9,4.4 16.4,4.4 L4.9,4.4 C2.3,4.4 0.2,6.5 0.2,9.1 C0.2,11.7 2.3,13.8 4.9,13.8 L16.4,13.8 C16.7,13.8 17,14 17.1,14.3 L40.1,90 C41.9,95.8 47.3,99.7 53.3,99.7 L111.4,99.7 C114,99.7 116.1,97.6 116.1,95 C116.1,92.4 114,90.3 111.4,90.3 L53.3,90.3 C51.3,90.3 49.5,89 48.9,87.1 L47.8,83.5 L111,83.5 C117.4,83.5 122.9,79.4 124.8,73.3 L134.4,42.2 C135.3,39.4 134.8,36.4 133,34 C131.3,31.6 128.6,30.3 125.7,30.3 C125.7,30.3 125.7,30.3 125.6,30.3 L121,30.3" id="Shape" class="stroke-primary" stroke-width="3" stroke-linecap="round" stroke-linejoin="round"></path>
            <path d="M47.3,30.3 L46.1,30.3 C43.5,30.3 41.4,32.4 41.4,35 C41.4,37.6 43.5,39.7 46.1,39.7 L48.8,39.7" id="Shape" class="stroke-primary" stroke-width="3" stroke-linecap="round" stroke-linejoin="round"></path>
            <circle id="Oval" stroke-width="3" class="stroke-primary fill-primary-400" fill-rule="nonzero" stroke-linecap="round" stroke-linejoin="round" cx="55.4" cy="117.3" r="10.3"></circle>
            <circle id="Oval" stroke-width="3" class="stroke-primary fill-primary-100" fill-rule="nonzero" stroke-linecap="round" stroke-linejoin="round" cx="55.4" cy="117.3" r="4.9"></circle>
            <circle id="Oval" stroke-width="3" class="stroke-primary fill-primary-400" fill-rule="nonzero" stroke-linecap="round" stroke-linejoin="round" cx="104.8" cy="117.3" r="10.3"></circle>
            <circle id="Oval" stroke-width="3" class="stroke-primary fill-primary-100" fill-rule="nonzero" stroke-linecap="round" stroke-linejoin="round" cx="104.8" cy="117.3" r="4.9"></circle>
            <g id="Group" transform="translate(53.000000, 0.000000)">
                <path d="M47.3,54.8 C42.6,57.9 37,59.7 31,59.7 C14.5,59.7 1.2,46.4 1.2,29.9 C1.2,13.4 14.5,0.1 31,0.1 C47.5,0.1 60.8,13.4 60.8,29.9 C60.7,40.3 55.4,49.5 47.3,54.8" id="Shape" class="fill-primary-500" fill-rule="nonzero"></path>
                <path d="M40.1,58.5 C39.8,58.6 39.6,58.6 39.3,58.7 C36.6,59.5 33.7,60 30.7,60 C24.1,60 17.9,57.8 13,54.2" id="Shape" class="stroke-primary" stroke-width="3" stroke-linecap="round" stroke-linejoin="round"></path>
                <path d="M1.2,34.6 C1,33.2 0.9,31.7 0.9,30.2 C0.9,13.7 14.2,0.4 30.7,0.4 C47.2,0.4 60.5,13.7 60.5,30.2 C60.5,39.4 56.3,47.7 49.7,53.2" id="Shape" class="stroke-primary" stroke-width="3" stroke-linecap="round" stroke-linejoin="round"></path>
                <path d="M6.2,47.2 C5.9,46.7 5.5,46.2 5.2,45.7" id="Shape" class="stroke-primary" stroke-width="3" stroke-linecap="round" stroke-linejoin="round"></path>
                <g transform="translate(13.000000, 12.000000)" fill-rule="nonzero" id="Shape">
                    <path d="M17.9,33.7 C15.9,33.7 13.7,32.2 13.7,29.5 L13.7,22.1 L6.3,22.1 C3.6,22.1 2.1,19.9 2.1,17.9 C2.1,16.8 2.5,15.8 3.1,15 C3.9,14.1 5,13.6 6.2,13.6 L13.6,13.6 L13.6,6.2 C13.6,3.5 15.8,2 17.8,2 C19.8,2 22,3.5 22,6.2 L22,13.6 L29.4,13.6 C30.7,13.6 31.8,14.1 32.5,15 C33.2,15.8 33.5,16.8 33.5,17.9 C33.5,19.9 32,22.1 29.3,22.1 L21.9,22.1 L21.9,29.5 C22.2,32.3 20,33.7 17.9,33.7 Z" class="fill-neutral"></path>
                    <path d="M17.9,3.5 C19.3,3.5 20.6,4.4 20.6,6.2 C20.6,8.1 20.6,11.5 20.6,15.1 C24.2,15.1 27.6,15.1 29.5,15.1 C33.1,15.1 33.1,20.5 29.5,20.5 C27.6,20.5 24.2,20.5 20.6,20.5 C20.6,24.1 20.6,27.5 20.6,29.4 C20.6,31.2 19.2,32.1 17.9,32.1 C16.5,32.1 15.2,31.2 15.2,29.4 C15.2,27.5 15.2,24.1 15.2,20.5 C11.6,20.5 8.2,20.5 6.3,20.5 C2.7,20.5 2.7,15.1 6.3,15.1 C8.2,15.1 11.6,15.1 15.2,15.1 C15.2,11.5 15.2,8.1 15.2,6.2 C15.2,4.4 16.6,3.5 17.9,3.5 Z M17.9,0.5 C16.5,0.5 15.1,1 14,1.9 C12.8,3 12.1,4.5 12.1,6.2 L12.1,12.1 L6.2,12.1 C3,12.1 0.5,14.6 0.5,17.8 C0.5,19.2 1,20.6 1.9,21.7 C3,22.9 4.5,23.6 6.2,23.6 L12.1,23.6 L12.1,29.5 C12.1,32.7 14.6,35.2 17.8,35.2 C21.1,35.2 23.5,32.8 23.5,29.5 L23.5,23.6 L29.4,23.6 C32.6,23.6 35.1,21.1 35.1,17.9 C35.1,14.6 32.7,12.2 29.4,12.2 L23.5,12.2 L23.5,6.3 C23.7,3 21.2,0.5 17.9,0.5 Z" class="fill-primary"></path>
                </g>
            </g>
        </g>
    </g>
</svg>
